img/icons/svg/ic_info-14.svg

<svg width="15" height="15" viewBox="0 0 15 15" fill="none" xmlns="http://www.w3.org/2000/svg">
<path d="M7.91785 0.300293C4.0455 0.300293 0.917847 3.42795 0.917847 7.30029C0.917847 11.1726 4.0455 14.3003 7.91785 14.3003C11.7902 14.3003 14.9178 11.1726 14.9178 7.30029C14.9178 3.42795 11.7902 0.300293 7.91785 0.300293ZM7.91785 13.1386C4.70083 13.1386 2.07955 10.5173 2.07955 7.30026C2.07955 4.08325 4.70083 1.46199 7.91785 1.46199C11.1349 1.46199 13.7561 4.08328 13.7561 7.30029C13.7561 10.5173 11.1349 13.1386 7.91785 13.1386Z" fill="#808080"/>
<path d="M7.94761 5.66199C7.61997 5.66199 7.35188 5.93007 7.35188 6.25772V11.0832C7.35188 11.4109 7.61997 11.679 7.94761 11.679C8.27526 11.679 8.54335 11.4109 8.54335 11.113V6.25775C8.54338 5.93007 8.27529 5.66199 7.94761 5.66199Z" fill="#808080"/>
<path d="M7.88805 2.89178C7.5604 2.89178 7.29232 3.15986 7.29232 3.48751V4.05348C7.29232 4.38113 7.5604 4.64921 7.88805 4.64921C8.2157 4.64921 8.45402 4.38113 8.48378 4.05348V3.48751C8.48378 3.15986 8.2157 2.89178 7.88805 2.89178Z" fill="#808080"/>
</svg>

<svg fill="none" xml:space="preserve" xmlns="http://www.w3.org/2000/svg" viewBox="0 0 15 15"><path d="M7.918.3c-3.873 0-7 3.128-7 7 0 3.873 3.127 7 7 7 3.872 0 7-3.127 7-7 0-3.872-3.128-7-7-7zm0 12.839A5.848 5.848 0 012.08 7.3a5.848 5.848 0 015.838-5.838A5.848 5.848 0 0113.756 7.3a5.848 5.848 0 01-5.838 5.839z" fill="gray"/><path d="M7.948 5.662a.597.597 0 00-.596.596v4.825c0 .328.268.596.596.596.327 0 .595-.268.595-.566V6.258a.597.597 0 00-.595-.596zM7.888 2.892a.597.597 0 00-.596.596v.565c0 .328.268.596.596.596.328 0 .566-.268.596-.596v-.565a.597.597 0 00-.596-.596z" fill="gray"/></svg>
